X: 35042
T: Rolling Grey Waves, The
R: jig
M: 6/8
K: Gmajor
DEG c3|BAG AFD|DEG cdc|BAG A3|
DEG c3|BAG AFD|d>ed cBA|GEG AFD:|
deg =f3|edc dBG|deg =fgf|edc d3|
deg =f3|edc dBG|d>ed cBA|GEG AFD:|

